X:11
T: Túl a vizen
O: Onest (Bákó), 1929
Q: 1/4=176
M:4/4
L:1/4
K:D
D/D/E/F/ G/G/F/E/ | F<D A2 | 
A/A/d/d/ c/A/B/B/ | B<A A z | 
A/A/d/d/ c/A/ B | G/G/B/B/ A/F/A | 
D/D/E/F/ A/G/F/E/ | F<D D z |

